!!!OTL: Rosengarten
!!!ARE: Europa, Mitteleuropa, Deutschland
!!!SCT: A0549
!!!YEM: Copyright 1995, estate of Helmut Schaffrath.
**kern
*ICvox
*Ivox
*M2/1
*k[b-e-]
*g:
{2g
=1
1b-
1b-
=2
1cc
1cc
=3
1dd
2dd
2cc
=4
1dd
2r}
{2cc
=5
2b-
2cc
1dd
=6
1dd
1dd
=7
1cc
1b
=8
1cc
2r}
{2cc
=9
1dd
2dd
2cc
=10
1b-
2b-
2a
=11
2g
2a
2b-
2g
=12
1a
2r}
{2dd
=13
1dd
1dd
=14
1b-
1dd
=15
1cc
1b-
=16
1cc
2r}
{2dd
=17
2b-
2a
1g
=18
2b-
2dd
2cc
2b-
=19
2a
2g
1a
=20
1.g}
==
!!!AGN: Romanze, Ballade, Lied, religioeses Lied
!! Beuttner II 1602 No. 23. Variante von A0610.
!!!ONB: ESAC (Essen Associative Code) Database: ALTDEU
!!!AMT: simple duple
!!!AIN: vox
!!!EED: Helmut Schaffrath
!!!EEV: 1.0
*-
